webapp/src/assets/icons/cloudproviders/aws/security_identify_compliance/certificate_authority.svg

<?xml version="1.0" encoding="UTF-8"?>
<svg width="48px" height="48px" viewBox="0 0 48 48" version="1.1" xmlns="http://www.w3.org/2000/svg" xmlns:xlink="http://www.w3.org/1999/xlink">
    <title>Icon-Resource/Security-Identity-and-Compliance/Res_AWS-Certificate-Manager_Certificate-Authority_48</title>
    <g id="Icon-Resource/Security-Identity-and-Compliance/Res_AWS-Certificate-Manager_Certificate-Authority_48" stroke="none" stroke-width="1" fill="none" fill-rule="evenodd">
        <path d="M29.0706,20.5469 L23.2436,26.6649 C23.0536,26.8629 22.7926,26.9759 22.5186,26.9759 C22.2456,26.9759 21.9836,26.8629 21.7956,26.6649 L18.8816,23.6069 L20.3296,22.2279 L22.5186,24.5259 L27.6226,19.1679 L29.0706,20.5469 Z M20.6056,32.0939 L20.6056,37.8489 L23.3426,35.6099 C23.7106,35.3089 24.2416,35.3089 24.6086,35.6099 L27.3456,37.8489 L27.3456,32.0939 L29.3456,32.0939 L29.3456,39.9589 C29.3456,40.3459 29.1236,40.6969 28.7746,40.8619 C28.6376,40.9279 28.4916,40.9589 28.3456,40.9589 C28.1196,40.9589 27.8946,40.8819 27.7136,40.7339 L23.9756,37.6759 L20.2386,40.7339 C19.9396,40.9769 19.5266,41.0289 19.1766,40.8619 C18.8286,40.6969 18.6056,40.3459 18.6056,39.9589 L18.6056,32.0939 L20.6056,32.0939 Z M23.9756,29.3459 C20.1896,29.3459 17.1096,26.2659 17.1096,22.4799 C17.1096,18.6939 20.1896,15.6139 23.9756,15.6139 C27.7606,15.6139 30.8416,18.6939 30.8416,22.4799 C30.8416,26.2659 27.7606,29.3459 23.9756,29.3459 L23.9756,29.3459 Z M32.8416,22.4799 C32.8416,17.5909 28.8646,13.6139 23.9756,13.6139 C19.0876,13.6139 15.1096,17.5909 15.1096,22.4799 C15.1096,27.3679 19.0876,31.3459 23.9756,31.3459 C28.8646,31.3459 32.8416,27.3679 32.8416,22.4799 L32.8416,22.4799 Z M4.0006,9.2439 L43.9016,9.2439 L43.9016,5.9999 L4.0006,5.9999 L4.0006,9.2439 Z M45.9016,10.2419 L45.9016,4.9999 C45.9016,4.4469 45.4546,3.9999 44.9016,3.9999 L3.0006,3.9999 C2.4476,3.9999 2.0006,4.4469 2.0006,4.9999 L2.0006,10.2439 L2.0006,43.4549 C2.0006,44.0079 2.4476,44.4549 3.0006,44.4549 L31.8416,44.4549 L31.8416,42.4549 L4.0006,42.4549 L4.0006,11.2439 L43.9036,11.2439 L43.9496,42.4549 L40.5816,42.4549 L40.5816,44.4549 L44.9516,44.4549 C45.2166,44.4549 45.4716,44.3499 45.6596,44.1619 C45.8466,43.9739 45.9516,43.7189 45.9516,43.4529 L45.9016,10.2419 Z" id="AWS-Certificate-Manager_Certificate-authority_Resource-Icon_light-bg" fill="#DD344C"></path>
    </g>
</svg>

<svg width="48" height="48" xmlns="http://www.w3.org/2000/svg"><path d="m29.07 20.547-5.826 6.118a.999.999 0 0 1-1.448 0l-2.914-3.058 1.448-1.38 2.189 2.299 5.104-5.358 1.448 1.379Zm-8.464 11.547v5.755l2.737-2.24a1 1 0 0 1 1.266 0l2.737 2.24v-5.755h2v7.865a.997.997 0 0 1-1 1 1 1 0 0 1-.632-.225l-3.738-3.058-3.737 3.058a1 1 0 0 1-1.633-.775v-7.865h2Zm3.37-2.748a6.874 6.874 0 0 1-6.866-6.866 6.874 6.874 0 0 1 6.866-6.866 6.874 6.874 0 0 1 6.866 6.866 6.874 6.874 0 0 1-6.866 6.866Zm8.866-6.866c0-4.89-3.977-8.866-8.866-8.866-4.888 0-8.866 3.977-8.866 8.866 0 4.888 3.978 8.866 8.866 8.866 4.889 0 8.866-3.978 8.866-8.866ZM4 9.244h39.9V6H4v3.244Zm41.9.998V5a1 1 0 0 0-1-1H3a1 1 0 0 0-1 1v38.454a1 1 0 0 0 1 1h28.84v-2H4.002v-31.21h39.903l.046 31.21h-3.368v2h4.37a1.001 1.001 0 0 0 1-1.001l-.05-33.211Z" fill="#DD344C" fill-rule="evenodd"/></svg>
